X: 41512
T: Ukrainian Tune
R: polka
M: 2/4
K: Fmajor
g_g =ga|b2 g2|fg fe|d2 a2|
AB AG|A2 =B_d|d4|d4|
|:AB AG|Af ef|d2 _d2|_dc d2|
a2 e2|g2 fe|f2 dc|de fd|
AB AG|Af ef|d2 _d2|_dc d2|
a2 e2|g2 fe|d2 f2|d4:|
|:g3a|b2 b2|a2 f2|e2 d2|
eA _de|ag e_d|d_d =de|f2 ef|
g3a|b2 b2|a2 f2|e2 d2|
eA _de|ag fe|d2 f2|d4:|
|:c2 dc|BA Bc|d2 c2|c3c|
dc =Bc|bc =Bc|dc Bc|ac Bc|
c2 dc|BA Bc|d2 c2|c4|
c2 dc|Bc de|fd cA|F4:|
g3a|b2 b2|a2 f2|e2 d2|
e2 _de|ag fe|d4|d'4|

